!!!!SEGMENT: pl-kk--kk-i-382--063_anonim--offertorium-nro-4.krn
!!!cenid: 18xx:1565
!!!COM: Anonim
!!!COM-rismid: pe30004985
!!!CDT:
!!!CNT:
!!!OTL: Offertorium Nro 4
!!!PDT:
!!!AGN: Sacred
!!!SMS-siglum: PL-Kk
!!!SMS-shelfmark: Kk.I.382
!!!SMS-shelfwork: 049 W
!!!SMS-variant:
!!!SMS-altvar:
!!!NIFC-rismid: 1001141091
!!!URL-scan: http://repozytorium.nifc.pl/skany/pl-kk-nut--i-382
!!!ONB-nifc: UWAGA: obsada: S (T 1), A (B 1), T 2, B 2; S (T 1): skan 0042; A (B 1): skan 0186-0187; T 2: skan 0114; B 2: skan 0263
**kern	**text	**dynam	**kern	**text	**kern	**text	**kern	**text
*part4	*part4	*part4	*part3	*part3	*part2	*part2	*part1	*part1
*staff4	*staff4	*	*staff3	*staff3	*staff2	*staff2	*staff1	*staff1
*Ibass	*	*	*Itenor	*	*Ialto	*	*Itenor	*
*I"Basso II	*	*	*I"Tenore II	*	*I"Alto vel Basso I	*	*I"Soprano vel Tenore I.	*
*I'B 2	*	*	*I'T 2	*	*I'A (B 1)	*	*I'S (T 1)	*
*clefF4	*	*	*clefC4	*	*clefC3	*	*clefC1	*
*k[b-]	*	*	*k[b-]	*	*k[b-]	*	*k[b-]	*
*a:	*	*	*a:	*	*a:	*	*a:	*
*M3/2	*	*	*M3/2	*	*M3/2	*	*M3/2	*
=1	=1	=1	=1	=1	=1	=1	=1	=1
*2\right	*	*	*2\right	*	*2\right	*	*2\right	*
*	*	*	*	*	*	*	*rscale:1/2	*
!	!	!	!	!	!	!	!LO:TX:t=P:problem:metrum 3/4 w źródle	!
!LO:TX:t=P:problem: Napis "in Dmol. Nro 4." przed kluczem	!	!	!LO:TX:t=P:problem: Napis "Nro 4 Confesore." przed kluczem	!	!LO:TX:t=P:problem: Napis "Nro 4. de Confesore." przed kluczem	!	!LO:TX:t=P:problem: Napis "Nro. 4." przed kluczem	!
!LO:TX:a:t=in Dmol.\nNro 4.	!	!	!LO:TX:a:t=Nro 4\nConfesore.	!	!LO:TX:a:t=Nro 4. de Confesore.	!	!LO:TX:a:t=Nro. 4.	!
!	!	!	!	!	!	!	!LO:TX:t=P:problem:all\right:global	!
2D\	Je-	.	2A\	Je-	2f\	Je-	2dd\	Je-
2D\	-su	.	2A\	-su	2d\	-su	2ff\	-su
2C#X/	co-	.	2A\	co-	2e\	co-	2ee\	co-
=2	=2	=2	=2	=2	=2	=2	=2	=2
1D	-ro-	.	1A	-ro-	1f	-ro-	1dd	-ro-
2GG/	-na	.	2B-X\	-na	2g\	-na	2dd\	-na
=3	=3	=3	=3	=3	=3	=3	=3	=3
2.AA/	cel-	.	2.A\	cel-	2.e\	cel-	2.cc#X\	cel-
!	!	!	!LO:TX:t=P:problem:all\right:global	!	!LO:TX:t=P:problem:all\right:global	!	!	!
4AA/	-si-	.	4A\	-si-	4e\	-si-	4cc#\	-si-
2AA/	-or	.	2A\	-or	2e\	-or	2cc#\	-or
=4	=4	=4	=4	=4	=4	=4	=4	=4
2G#X\	et	.	2Bn\	et	2e\	et	2bn\	et
2.G#\	ve-	.	2B\	ve-	2.e\	ve-	2.b\	ve-
.	.	.	2B\	-ri-	.	.	.	.
!LO:TX:t=P:problem:all\right:global	!	!	!	!	!	!	!	!
4G#\	-ri-	.	.	.	4d\	-ri-	4b\	-ri-
!	!	!	!	!	!	!	!LO:LB:g=original	!
=5	=5	=5	=5	=5	=5	=5	=5	=5
!	!	!	!LO:TX:i:a:t=V&colon; S&colon;	!	!	!	!	!
!	!	!	!LO:TX:a:t=P:problem:napis na pięciolinii za kreską	!	!	!	!	!
2A\	-tas	.	1.A	-tas	1.c	-tas	2cc\	-tas
2.A\	ve-	.	.	.	.	.	2.cc\	ve-
4G\	-ri-	.	.	.	.	.	4bn\	-ri-
!	!	!	!LO:PB:g=original	!	!LO:LB:g=original	!	!	!
=6	=6	=6	=6	=6	=6	=6	=6	=6
(>4F\	-tas	.	2A\	et	2f\	et	1a	-tas
4E\	.	.	.	.	.	.	.	.
2D\	.	.	2A\	ve-	2.f\	ve-	.	.
2C\)	.	.	2A\	-ri-	.	.	2a\	sub-
.	.	.	.	.	4e\	-ri-	.	.
!LO:LB:g=original	!	!	!	!	!	!	!	!
=7	=7	=7	=7	=7	=7	=7	=7	=7
1BBn	sub-	.	1Bn	-tas	1d	-tas	(>1bn	-li-
2C/	.	.	2e\	sub-	2e\	sub-	2a\)	.
=8	=8	=8	=8	=8	=8	=8	=8	=8
2D\	-li-	.	(>4d\	-li-	(>2f\	-li-	1a	.
.	.	.	4c\	.	.	.	.	.
2.E\	.	.	2.Bn\)	.	2e\)	.	.	.
.	.	.	.	.	2e\	-mi-	2g#X\	-mi-
4E\	-mi-	.	4B\	-mi-	.	.	.	.
=9	=9	=9	=9	=9	=9	=9	=9	=9
1.AA	-or	.	1.c#X	-or	1.e	-or	1.a	-or
=10	=10	=10	=10	=10	=10	=10	=10	=10
2C/	qui	.	2cn\	qui	2e\	qui	2gn\	qui
4C/	con-	.	2c\	con-	2e\	con-	2g\	con-
4BB-X/	.	.	.	.	.	.	.	.
2AA/	-fi-	.	2c\	-fi-	2f#X\	-fi-	2a\	-fi-
!	!	!	!	!	!	!	!LO:LB:g=original	!
=11	=11	=11	=11	=11	=11	=11	=11	=11
2.GG/	-ten-	.	1d	-ten-	1g	-ten-	1b-	-ten-
4AA/	.	.	.	.	.	.	.	.
2BB-/	-ti	.	2d\	-ti	2g\	-ti	2b-\	-ti
=12	=12	=12	=12	=12	=12	=12	=12	=12
2C/	ser-	.	(>2e-X\	ser-	1g	ser-	(>2b-\	ser-
2.D/	.	.	2.d\)	.	.	.	2.a\)	.
.	.	.	.	.	2f#X\	-vu-	.	.
4D/	-vu-	.	4d\	-vu-	.	.	4a\	-vu-
!	!	!	!	!	!LO:LB:g=original	!	!	!
=13	=13	=13	=13	=13	=13	=13	=13	=13
1GG	-lo	.	1d	-lo	1g	-lo	1bn	-lo
2G\	red-	.	2d\	red-	2g\	red-	2b\	red-
!LO:LB:g=original	!	!	!LO:LB:g=original	!	!	!	!	!
=14	=14	=14	=14	=14	=14	=14	=14	=14
2G\	-dis	.	2.d\	-dis	2.d\	-dis	2.bn\	-dis
(>4F\	pe-	.	.	.	.	.	.	.
4E\)	.	.	4A\	pe-	4e\	pe-	4cc\	pe-
2D\	-ren-	.	2A\	-ren-	2f\	-ren-	2dd\	-ren-
=15	=15	=15	=15	=15	=15	=15	=15	=15
(<4AA/	-ne	.	2A\	-ne	2f\	-ne	2cc\	-ne
4BB-/)	.	.	.	.	.	.	.	.
2.C/	pre-	.	2.G/	pre-	2.f\	pre-	2cc\	pre-
.	.	.	.	.	.	.	2cc\	-mi-
4C/	-mi-	.	4G/	-mi-	4e\	-mi-	.	.
=16	=16	=16	=16	=16	=16	=16	=16	=16
1F	-um	.	1A	-um	1f	-um	1cc	-um
2F\	red-	.	2cn\	red-	2a\	red-	2cc\	red-
!	!	!	!	!	!	!	!LO:LB:g=original	!
=17	=17	=17	=17	=17	=17	=17	=17	=17
2A\	-dis	.	2.A\	-dis	2.e\	-dis	2.cc\	-dis
(>4G\	pe-	.	.	.	.	.	.	.
4F\)	.	.	4A\	pe-	4f\	pe-	4dd\	pe-
2E\	-ren-	.	2G/	-ren-	2g\	-ren-	2ee\	-ren-
=18	=18	=18	=18	=18	=18	=18	=18	=18
2F\	-ne	.	2A\	-ne	2f\	-ne	2dd\	-ne
2A\	pre-	.	2.A\	pre-	2.e\	pre-	2dd\	pre-
2AA/	-mi-	.	.	.	.	.	2cc#X\	-mi-
.	.	.	4A\	-mi-	4e\	-mi-	.	.
!	!	!	!	!	!LO:LB:g=original	!	!	!
=19	=19	=19	=19	=19	=19	=19	=19	=19
!LO:N:vis=0	!	!	!	!	!	!	!	!
1.D	-um	.	1.A	-um	1.f#X	-um.	1.dd	-um
!LO:LB:g=original	!	!	!	!	!	!	!	!
=20||	=20||	=20||	=20||	=20||	==20	==20	==20	==20
2F\	da	.	2A\	Da	2fn\	Da	2ccn\	Da
2F\	su[p]-	.	2A\	su[p]-	2f\	su[p]-	2cc\	su[p]-
2E\	-pli-	.	2c\	-pli-	2g\	-pli-	2cc\	-pli-
!	!	!	!LO:LB:g=original	!	!	!	!	!
=21	=21	=21	=21	=21	=21	=21	=21	=21
1D	-can-	.	1d	-can-	1a	-can-	1cc	-can-
2G\	-ti	.	2d\	-ti	2g\	-ti	2bn\	-ti
!	!	!	!	!	!	!	!LO:LB:g=original	!
=22	=22	=22	=22	=22	=22	=22	=22	=22
2.E\	ce-	.	2.c\	ce-	2.g\	ce-	2.cc\	ce-
4D\	-tu-	.	4c\	-tu-	4f\	-tu-	4dd\	-tu-
2C/	-i	.	2c\	-i	2e\	-i	2ee\	-i
=23	=23	=23	=23	=23	=23	=23	=23	=23
2A\	hu-	.	2c\	hu-	2a\	hu-	2ff\	hu-
2F\	-ius	.	2A\	-jus	2a\	-jus	2cc\	-jus
2A\	ro-	.	2c\	ro-	2a\	ro-	2ff\	ro-
=24	=24	=24	=24	=24	=24	=24	=24	=24
(>2.B-\	-ga-	.	(>2.d\	-ga-	2.f\	-ga-	(>2.dd\	-ga-
8A\L	.	.	4e\)	.	4g\	.	8cc\L	.
8G\J)	.	.	.	.	.	.	8b-X\J)	.
2F\	-tu	.	2f\	-tu	2a\	-tu	2a\	-tu
=25	=25	=25	=25	=25	=25	=25	=25	=25
2B-\	no-	.	1f	no-	1g	no-	(>2dd\	no-
2c\	.	.	.	.	.	.	2.cc\)	.
2C/	-xi-	.	2e\	-xi-	2g\	-xi-	.	.
.	.	.	.	.	.	.	4b-X\	-xi-
!	!	!	!	!	!LO:LB:g=original	!	!	!
=26	=26	=26	=26	=26	=26	=26	=26	=26
!	!	!	!LO:TX:t=P:problem:podwójna kreska taktowa	!	!	!	!	!
1.F	-i	.	1.f	-i.	1.f	-i	1.a	-i,
!	!	!	!	!	!	!	!LO:LB:g=original	!
=27	=27	=27	=27||	=27||	=27	=27	=27	=27
!LO:TX:i:a:t=Solo.:rj	!	!LO:DY:b:t=p.:rj	!	!	!	!	!	!
!LO:TX:a:t=P:problem:oznaczenie dynamiczne na pięciolinii przed nutą	!	!	!	!	!	!	!	!
2c\	re-	p	(>4f\	re-	(>4a\	re-	2cc\	re-
.	.	.	4e\)	.	4g\)	.	.	.
2c\	-mi[s]-	.	2d\	-mi[s]-	2f\	-mi[s]-	2cc\	-mi[s]-
2c\	-si-	.	2c\	-si-	2e\	-si-	2cc\	-si-
!LO:LB:g=original	!	!	!LO:LB:g=original	!	!	!	!	!
=28	=28	=28	=28	=28	=28	=28	=28	=28
!LO:N:vis=2	!	!	!	!	!	!	!	!
1c	-o-	.	(>2e\	-o-	(>2g\	-o-	1cc	-o-
.	.	.	2f\)	.	2a\)	.	.	.
2c\	-nem	.	2e\	-nem	2g\	-nem	2cc\	-nem
=29	=29	=29	=29	=29	=29	=29	=29	=29
1c	cri-	.	1d	cri-	1f	cri-	1cc	cri-
2Bn\	-mi-	.	2d\	-mi-	2f\	-mi-	2bn\	-mi-
=30	=30	=30	=30	=30	=30	=30	=30	=30
1.c	-nis	.	1.c	-nis	1.e	-nis	1.cc	-nis
=31	=31	=31	=31	=31	=31	=31	=31	=31
2A\	rum-	.	2A\	rum-	2f\	rum-	2cc\	rum-
2A\	-pen-	.	2A\	-pen-	2f\	-pen-	2cc\	-pen-
2A\	-do	.	2A\	-do	2f\	-do	2cc\	-do
=32	=32	=32	=32	=32	=32	=32	=32	=32
(>2.B-X\	ne-	.	(>2.B-X\	ne-	1d	ne-	(>2.dd\	ne-
4A\)	.	.	4A\)	.	.	.	4cc\)	.
2G\	-xum	.	2G/	-xu[m]	2e\	-xu[m]	2b-X\	-xum
!	!	!	!	!	!LO:LB:g=original	!	!LO:LB:g=original	!
=33	=33	=33	=33	=33	=33	=33	=33	=33
(>4F\	vin-	.	(>2F/	vin-	1f	vin-	(>2a\	vin-
4A\)	.	.	.	.	.	.	.	.
2.c\	.	.	2.c\)	.	.	.	2.g\)	.
.	.	.	.	.	2e\	-cu-	.	.
4c\	-cu-	.	4c\	-cu-	.	.	4g\	-cu-
=34	=34	=34	=34	=34	=34	=34	=34	=34
!	!	!	!LO:TX:t=P:problem:2.F poprawione na 1.F	!	!	!	!	!
1.F	-li	.	1.F	-li	1.f	-li	1.a	-li
=35	=35	=35	=35	=35	=35	=35	=35	=35
!LO:TX:a:t=P:problem:oznaczenie dynamiczne na pięciolinii przed nutą	!	!LO:DY:b:t=f.:rj	!	!	!	!	!	!
(>4B-\	re-	f	2B-X\	re-	2f\	re-	(>4dd\L	re-
4A\)	.	.	.	.	.	.	4cc\)J	.
2G\	-mi[s]-	.	2B-\	-mi[s]-	2e\	-mi[s]-	2b-X\	-mi[s]-
2F\	-si-	.	2A\	-si-	2f\	-si-	2cc\	-si-
!LO:LB:g=original	!	!	!LO:LB:g=original	!	!	!	!	!
=36	=36	=36	=36	=36	=36	=36	=36	=36
(>2A\	-o-	.	(>2c\	-o-	1f	-o-	(>2cc\	-o-
2B-\)	.	.	2B-\)	.	.	.	2dd\)	.
2A\	-nem	.	2c\	-nem	2f\	-nem	2cc\	-nem
=37	=37	=37	=37	=37	=37	=37	=37	=37
1G	cri-	.	(>2.d\	cri-	1f	cri-	1b-X	cri-
.	.	.	4c\)	.	.	.	.	.
2G\	-mi-	.	2B-\	-mi-	2e\	-mi-	2b-\	-mi-
=38	=38	=38	=38	=38	=38	=38	=38	=38
!	!	!	!	!	!LO:TX:a:i:t=V&colon; S&colon;	!	!	!
!	!	!	!	!	!LO:TX:a:t=P:problem:napis za kreską na pięciolinii	!	!	!
1.F	-nis	.	1.A	-nis	1.f	-nis,	1.cc	-nis
!	!	!	!	!	!LO:PB:g=original	!	!LO:LB:g=original	!
=39	=39	=39	=39	=39	=39	=39	=39	=39
2D\	rum-	.	2A\	rum-	2f\	rum-	2b-\	rum-
2D\	-pen-	.	2A\	-pen-	2f\	-pen-	2b-\	-pen-
2D\	-do	.	2A\	-do	2f\	-do	2b-\	-do
=40	=40	=40	=40	=40	=40	=40	=40	=40
(>2.E-X\	ne-	.	1G	ne-	(>2.g\	ne-	1b-X	ne-
4D\)	.	.	.	.	4f\)	.	.	.
2C/	-xum	.	2G/	-xu[m]	2e-\	-xu[m]	(>4cc\L	-xum
.	.	.	.	.	.	.	4b-\)J	.
=41	=41	=41	=41	=41	=41	=41	=41	=41
1D	vin-	.	1G	vin-	1d	vin-	1a	vin-
2D\	-cu-	.	2F#X/	-cu-	2d\	-cu-	2a\	-cu-
=42	=42	=42	=42	=42	=42	=42	=42	=42
1.GG	-li	.	1.G	-li	1.d	-li	1.bn	-li
!LO:LB:g=original	!	!	!	!	!	!	!	!
=43	=43	=43	=43	=43	=43	=43	=43	=43
2G\	rum-	.	2B-X\	rum-	2g\	rum-	2dd\	rum-
2G\	-pen-	.	2B-\	-pen-	2g\	-pen-	2dd\	-pen-
2G\	-do	.	2B-\	-do.	2g\	-do	(>4ee\L	-do
.	.	.	.	.	.	.	4dd\)J	.
!	!	!	!LO:LB:g=original	!	!	!	!	!
=44	=44	=44	=44	=44	=44	=44	=44	=44
(>2.A\	ne-	.	(>2.A\	ne-	(>2.e\	ne-	1cc#X	ne-
4G\)	.	.	8B-\L	.	8f\L	.	.	.
.	.	.	8c\J)	.	8g\J)	.	.	.
2F\	-xum	.	2d\	-xu[m]	2a\	-xu[m]	2dd\	-xum
!	!	!	!	!	!	!	!LO:LB:g=original	!
=45	=45	=45	=45	=45	=45	=45	=45	=45
2G\	vin-	.	(>2B-\	vin-	(>4g\	vin-	1dd	vin-
.	.	.	.	.	4f\	.	.	.
2A\	.	.	2.A\)	.	2.e\)	.	.	.
2AA/	-cu-	.	.	.	.	.	2cc#X\	-cu-
.	.	.	4A\	-cu-	4e\	-cu-	.	.
=46	=46	=46	=46	=46	=46	=46	=46	=46
1.D	-li.	.	1.A	-li.	1.f#X	-li.	1.dd	-li.
==	==	==	==	==	==	==	==	==
*-	*-	*-	*-	*-	*-	*-	*-	*-
!!!system-decoration: [(s1,s2,s3,s4)]
!!!RDF**kern: > = above
!!!RDF**kern: < = below
!!!EED: Mateusz Mrugas
!!!EST: 2021-02-08
!!!ENC: Katarzyna Serwa
!!!END: 2021-01-31
